X:1
T:Wer kan es doch
T:Antonio Brunelli
T:Source : Tricinia---Johann-Jacob Gastoldi und anderer Autorn---Nürnberg---P.Kauffmann---1607. Editor : André Vierendeels (23/03/17).
T:Notes : Original clefs : C1, C1, F4 Editorial accidentals above the staff Text Middle German by Valentin Hauszmann Sub-heading : from "Affettuoso Invaghito"
T:Wer kan es doch
T:©
T:©
T:©
C:Antonio Brunelli
Z:©
%%score [ 1 2 3 ]
L:1/8
Q:1/4=100
M:4/4
K:F
V:1 treble nm="Soprano 1" snm="S 1"
V:2 treble nm="Soprano 2" snm="S 2"
V:3 bass nm="Bass" snm="B"
V:1
"^1)" z4 d2 d2 | d2 dd B4- | B4 A4 | d2 AA A3 A | A8 | G4 A4- | A2 F2 E4 | ^F8 :: d2 dd d4- | %9
w: Wer kan|es doch er- mes-|* sen?|Wer will ge- nug mit|sei-|ner zung|_ ausz- spre-|chen,|wie mich mit ih-|
w: Wer kan|dem schmer- zen weh-|* ren?|Un mich desz lei- des|gantz|und gar|_ ent- bre-|chen,|da- mit ein freund-|
 d2 c2 B4 | B4 B2 B2 | c4 d4 | _e2 ee e3 e | c2 d2 c3 c | =B2 c4 B2 | c8 | c6 cc | c6 A2 | G4 F4 | %19
w: * rer krafft|die lieb be-|ses- sen,|die mein Hertz so ge-|wal- tig thut ver-|wun- * *|den,|weil ich ihr|bin ver-|bun- den,|
w: * lich Bild|mich thut be-|schwe- ren,|wel- ches ich hab zu|freund und trost er-|weh- * *|let,|ohn un- ter-|lasz mich|que- let?|
 z4 d4- | d2 dd d4- | d2 B2 A4 | G8 :| %23
w: weil|_ ich ihr bin|_ ver- bun-|den?|
w: Ohn|_ un- ter- lasz|_ mich que-|let?|
V:2
"^2)""^1)" B2 B2 B2 BB | G8- | G4 ^F4 | ^F2 FF F3 F | ^F6 E2 | D4 F4- | F2 D4 ^C2 | D8 :: %8
w: Wer kan es doch er-|mes-|* sen?|Wer will ge- nug mit|sei- ner|zung ausz-|* spre- *|chen,|
w: Wer darff ich un- ter|ste-|* hen,|der mit gu- tem Ge-|wis- sen|wol- te|_ sa- *|gen,|
 B2 FF F4 | A4 G2 G2 | G4 G2 B2- | B2 A2 B4 | G2 GG G3 G | _E2 F4 G2- | G2 _E2 D4 | E4 A4- | %16
w: wie mich mit ih-|rer krafft die|lieb be- ses-|* * sen,|die mein Hertz so ge-|wal- tig thut|_ ver- wun-|den, weil|
w: er hab ein lieb-|li- cher ge-|stallt ge- se-|* * hen,|als die, umb wel- cher|willn ich so|_ vil dul-|de, zu|
 A2 GG A4- | A2 F2 E2 F2- | F2 E2 F4 | B6 AA | B6 G2 | ^F2 G4 F2 | G8 :| %23
w: _ ich ihr bin|_ ver- bun _|_ _ den,|weil ich ihr|bin ver-|bun- * *|den?|
w: _ ha- ben ih-|* re hul- *|* * de?|Zu ba- ben|ih- re|hul- * *|de.|
V:3
"^3)""^1)""^4)" G,2 G,2 G,2 G,G, | G,8 | D,8 | D,2 D,D, D,3 D, | D,6 C,2 | B,,4 F,,4 | A,,8 | %7
w: Wer kan es doch er-|mes-|sen?|Wer will ge- nug mit|sei- ner|zung ausz-|spre-|
w: Wer will mir glau- nen|ge-|ben?|Denn ich jetz- und an-|fa- hen|soll zu|kla-|
 D,8 :: B,,2 B,,B,, B,,4 | F,,4 G,,4 | z2 _E,2 E,2 D,2 | F,4 B,,4 | C,2 C,C, C,3 C, | %13
w: chen,|wie mich mit ih-|rer krafft|die lieb be-|ses- sen,|die mein Hertz so ge-|
w: gen,|Dasz mei- ne treu-|e Dienst|nicht wolln be-|kle- ben,|bey ei- ner so schö-|
 C,2 B,,2 _A,,2 _E,,2 | G,,8 | C,4 F,4- | F,2 E,E, F,4- | F,2 A,2 C4- | C4 F,4 | G,6 ^F,F, | %20
w: wal- tig thut ver-|wun-|den, weil|_ ich ihr bin|_ ver- bun-|* den,|weil ich ihr|
w: nen zar- ten fi-|gu-|re, ganz|_ wi- der Na-|* tu- *|* re?|ganz wi- der|
 G,4 B,,4 | D,8 | G,,8 :| %23
w: bin ver-|bun-|den?|
w: Na- tu-||re?|

